src/assets/icons/verified.svg

<svg width="14" height="14" viewBox="0 0 14 14" fill="none" xmlns="http://www.w3.org/2000/svg">
<g id="verified">
<g clip-path="url(#clip0_156_4588)">
<path id="Vector" d="M8.56656 14C8.18315 14 7.82852 13.8196 7.53144 13.6679C7.34713 13.5738 7.11693 13.4572 7.00028 13.4572C6.8844 13.4572 6.6542 13.5738 6.46911 13.6679C6.09582 13.8585 5.62998 14.0949 5.13069 13.9603C4.6213 13.825 4.33433 13.3794 4.10336 13.0217C3.99992 12.8615 3.85916 12.6414 3.76895 12.5885C3.67796 12.5372 3.42443 12.5239 3.21989 12.5138C2.79994 12.4928 2.27733 12.4664 1.90559 12.1024C1.53307 11.7229 1.50741 11.2003 1.48641 10.7803C1.4763 10.5758 1.46386 10.3223 1.40942 10.2274C1.35965 10.1418 1.13878 10.0003 0.978575 9.89688C0.620835 9.6659 0.175215 9.37893 0.039118 8.86721C-0.0946457 8.36793 0.141774 7.90442 0.332309 7.53112C0.426411 7.34681 0.543065 7.11661 0.543065 6.99996C0.543065 6.88408 0.426411 6.65388 0.332309 6.46879C0.141774 6.09627 -0.0946461 5.63199 0.0398953 5.13038C0.175214 4.62099 0.620835 4.33402 0.978575 4.10304C1.13878 3.99961 1.35887 3.85884 1.41175 3.76863C1.46308 3.67764 1.4763 3.42411 1.48641 3.21958C1.50741 2.79962 1.53385 2.27701 1.89781 1.90527C2.27733 1.53275 2.79994 1.50709 3.21989 1.48609C3.42443 1.47598 3.67796 1.46354 3.77284 1.4091C3.85838 1.35933 3.99992 1.13846 4.10336 0.978257C4.33433 0.620517 4.6213 0.174897 5.13303 0.0388006C5.63153 -0.0941854 6.09582 0.142234 6.46911 0.331992C6.65342 0.426093 6.88362 0.542748 7.00028 0.542748C7.11615 0.542748 7.34635 0.426093 7.53144 0.331992C7.90474 0.142234 8.37213 -0.0934081 8.86986 0.0395779C9.37925 0.174897 9.66622 0.620517 9.89719 0.978257C10.0006 1.13846 10.1414 1.35855 10.2316 1.41143C10.3226 1.46276 10.5761 1.47598 10.7807 1.48609C11.2006 1.50709 11.7232 1.53353 12.095 1.89749C12.4675 2.27701 12.4931 2.79962 12.5141 3.21958C12.5243 3.42411 12.5367 3.67764 12.5911 3.77252C12.6409 3.85807 12.8618 3.99961 13.022 4.10304C13.3797 4.33402 13.8246 4.62021 13.9607 5.13115C14.0944 5.63199 13.858 6.0955 13.6682 6.46879C13.5741 6.6531 13.4575 6.8833 13.4575 6.99996C13.4575 7.11583 13.5741 7.34603 13.6682 7.53112C13.8588 7.90364 14.0952 8.36793 13.9607 8.86954C13.8253 9.37893 13.3797 9.6659 13.022 9.89688C12.8618 10.0003 12.6417 10.1411 12.5888 10.2313C12.5375 10.3223 12.5243 10.5758 12.5141 10.7803C12.4931 11.2003 12.4667 11.7229 12.1027 12.0946C11.7232 12.4672 11.2006 12.4928 10.7807 12.5138C10.5761 12.5239 10.3226 12.5364 10.2277 12.5908C10.1422 12.6406 10.0006 12.8615 9.89719 13.0217C9.66622 13.3794 9.37925 13.825 8.86753 13.9611C8.76565 13.9891 8.66532 14 8.56656 14ZM5.44255 1.16802C5.43866 1.16802 5.43477 1.16801 5.43088 1.16879C5.35 1.1999 5.17813 1.46743 5.08559 1.6113C4.89972 1.89983 4.68896 2.22646 4.35767 2.41933C4.01703 2.61531 3.62507 2.63475 3.27822 2.65186C3.10791 2.66041 2.79061 2.67597 2.72139 2.73274C2.67551 2.79107 2.65995 3.10837 2.6514 3.27868C2.63507 3.62476 2.61485 4.01672 2.4212 4.35424C2.226 4.68942 1.89937 4.8994 1.61084 5.08527C1.46619 5.17782 1.19944 5.35047 1.16755 5.4329C1.15667 5.51689 1.29121 5.78131 1.37209 5.93918C1.53074 6.25026 1.71117 6.60333 1.71117 6.99996C1.71117 7.39658 1.53152 7.74966 1.37209 8.06074C1.29121 8.21861 1.15745 8.48302 1.16833 8.56935C1.19944 8.65023 1.46697 8.8221 1.61084 8.91465C1.89937 9.10052 2.226 9.31127 2.41887 9.64257C2.61485 9.9832 2.63429 10.3752 2.6514 10.722C2.65995 10.8923 2.67551 11.2096 2.73228 11.2788C2.79061 11.3247 3.10791 11.3403 3.27822 11.3488C3.6243 11.3652 4.01626 11.3854 4.35378 11.579C4.68896 11.7742 4.89894 12.1009 5.08481 12.3894C5.17736 12.534 5.35001 12.8008 5.43244 12.8327C5.51332 12.8521 5.78085 12.7098 5.93872 12.6281C6.2498 12.4695 6.60287 12.2891 6.9995 12.2891C7.39612 12.2891 7.7492 12.4687 8.06028 12.6281C8.21815 12.709 8.46468 12.8498 8.56889 12.8319C8.64977 12.8008 8.82164 12.5333 8.91419 12.3894C9.10006 12.1009 9.31081 11.7742 9.64211 11.5814C9.98274 11.3854 10.3747 11.3659 10.7216 11.3488C10.8919 11.3403 11.2092 11.3247 11.2784 11.268C11.3243 11.2096 11.3398 10.8923 11.3484 10.722C11.3647 10.3759 11.3849 9.98398 11.5786 9.64646C11.7738 9.31127 12.1004 9.10129 12.3889 8.91542C12.5336 8.82288 12.8003 8.65023 12.8322 8.56779C12.8431 8.4838 12.7086 8.21939 12.6277 8.06151C12.469 7.75043 12.2886 7.39736 12.2886 7.00074C12.2886 6.60411 12.4683 6.25104 12.6277 5.93996C12.7078 5.78286 12.8408 5.52 12.8322 5.4329C12.7988 5.34969 12.532 5.17782 12.3889 5.08605C12.1004 4.90018 11.7738 4.68942 11.5809 4.35813C11.3849 4.01749 11.3655 3.62553 11.3484 3.27868C11.3398 3.10837 11.3243 2.79107 11.2675 2.72185C11.2092 2.67597 10.8919 2.66041 10.7216 2.65186C10.3755 2.63553 9.98352 2.61531 9.646 2.42166C9.31081 2.22646 9.10083 1.89983 8.91496 1.6113C8.82242 1.46665 8.64977 1.1999 8.56733 1.16802C8.48645 1.14857 8.21893 1.29089 8.06105 1.37255C7.74998 1.5312 7.3969 1.71162 7.00028 1.71162C6.60365 1.71162 6.25058 1.53198 5.9395 1.37255C5.78785 1.29478 5.53821 1.16802 5.44255 1.16802ZM12.833 5.43134C12.8338 5.43212 12.8338 5.43212 12.833 5.43134V5.43134ZM5.82907 9.73201C5.6743 9.73201 5.52576 9.67057 5.41689 9.56091L3.46487 7.60812C3.237 7.38025 3.237 7.01085 3.46487 6.78298C3.69351 6.55434 4.06292 6.55589 4.29001 6.78298L5.82907 8.32282L9.7121 4.43978C9.93997 4.21192 10.3094 4.21192 10.5372 4.43978C10.7651 4.66765 10.7651 5.03705 10.5372 5.26492L6.24202 9.56013C6.13237 9.67057 5.98383 9.73201 5.82907 9.73201Z" fill="black"/>
</g>
</g>
<defs>
<clipPath id="clip0_156_4588">
<rect width="14" height="14" fill="white"/>
</clipPath>
</defs>
</svg>

<svg xmlns="http://www.w3.org/2000/svg" fill="none" viewBox="0 0 14 14"><g clip-path="url(#a)"><path fill="#000" d="M8.567 14c-.384 0-.738-.18-1.036-.332-.184-.094-.414-.21-.53-.21s-.347.116-.532.21c-.373.19-.839.427-1.338.292-.51-.135-.797-.58-1.028-.938-.103-.16-.244-.38-.334-.434-.091-.05-.345-.064-.55-.074-.42-.021-.942-.048-1.313-.412-.373-.38-.399-.902-.42-1.322-.01-.204-.022-.458-.077-.553-.05-.085-.27-.227-.43-.33-.358-.231-.804-.518-.94-1.03-.134-.5.103-.963.293-1.336.094-.184.211-.414.211-.531 0-.116-.117-.346-.21-.531C.141 6.096-.096 5.632.04 5.13c.135-.509.58-.796.939-1.027.16-.103.38-.244.433-.334.051-.091.064-.345.074-.55.021-.42.048-.942.412-1.314.38-.372.902-.398 1.322-.419.204-.01.458-.022.553-.077.085-.05.227-.27.33-.43.231-.358.518-.804 1.03-.94.499-.133.963.103 1.336.293.184.094.415.21.531.21s.346-.116.531-.21c.374-.19.841-.425 1.339-.292.51.135.796.58 1.027.938.104.16.244.38.335.433.09.052.344.065.549.075.42.021.942.048 1.314.411.372.38.398.903.42 1.323.01.204.022.458.076.553.05.085.27.227.431.33.358.231.803.517.939 1.028.133.501-.103.965-.293 1.338-.094.184-.21.414-.21.531 0 .116.116.346.21.531.19.373.427.837.293 1.339-.136.509-.581.796-.939 1.027-.16.103-.38.244-.433.334s-.065.345-.075.55c-.02.42-.047.942-.411 1.314-.38.372-.902.398-1.322.419-.205.01-.458.022-.553.077-.086.05-.227.27-.33.43-.232.358-.519.804-1.03.94a1.1 1.1 0 0 1-.301.039M5.443 1.168H5.43c-.081.032-.253.3-.345.443-.186.289-.397.615-.728.808-.341.196-.733.216-1.08.233-.17.008-.487.024-.557.08-.045.06-.061.376-.07.547-.016.346-.036.738-.23 1.075-.195.335-.522.545-.81.731-.145.093-.412.265-.443.348-.011.084.123.348.204.506.159.311.34.664.34 1.061s-.18.75-.34 1.06c-.08.159-.215.423-.204.51.031.08.299.252.443.345.288.186.615.396.808.728.196.34.215.732.232 1.079.009.17.025.488.081.557.059.046.376.061.546.07.346.016.738.036 1.076.23.335.195.545.522.73.81.093.145.266.412.348.444.081.02.349-.123.507-.205.31-.159.664-.339 1.06-.339.397 0 .75.18 1.061.34.158.08.405.22.509.203.08-.031.253-.299.345-.443.186-.288.397-.615.728-.808.34-.196.733-.215 1.08-.232.17-.009.487-.024.556-.081.046-.058.062-.376.07-.546.017-.346.037-.738.23-1.076.196-.335.522-.545.81-.73.146-.093.412-.266.444-.348.011-.084-.123-.349-.204-.506-.159-.312-.34-.665-.34-1.061 0-.397.18-.75.34-1.061.08-.157.213-.42.204-.507-.033-.083-.3-.255-.443-.347-.289-.186-.615-.397-.808-.728-.196-.34-.215-.732-.233-1.08-.008-.17-.024-.487-.08-.556-.059-.046-.376-.062-.546-.07-.346-.016-.738-.037-1.076-.23-.335-.196-.545-.522-.731-.81-.093-.145-.265-.412-.348-.444-.08-.02-.348.123-.506.205-.311.158-.664.339-1.06.339-.397 0-.75-.18-1.062-.34-.151-.077-.4-.204-.496-.204m7.39 4.263q0 .002 0 0M5.829 9.732a.58.58 0 0 1-.412-.171L3.465 7.608a.583.583 0 1 1 .825-.825l1.54 1.54L9.711 4.44a.583.583 0 1 1 .825.825L6.242 9.56a.58.58 0 0 1-.413.172"/></g><defs><clipPath id="a"><path fill="#fff" d="M0 0h14v14H0z"/></clipPath></defs></svg>
